custom_files/u164.svg

<svg width="19" height="19" viewBox="-237 412 19 19" xmlns="http://www.w3.org/2000/svg"><path d="M-227.5 412c5.32 0 9.5 4.18 9.5 9.5s-4.18 9.5-9.5 9.5-9.5-4.18-9.5-9.5 4.18-9.5 9.5-9.5z" fill="#aaa5a5"/><path d="M-227.5 412.5c5.04 0 9 3.96 9 9s-3.96 9-9 9-9-3.96-9-9 3.96-9 9-9z" stroke="#797979" fill="none"/></svg>

﻿<?xml version="1.0" encoding="utf-8"?>
<svg version="1.1" xmlns:xlink="http://www.w3.org/1999/xlink" width="19px" height="19px" viewBox="-237 412  19 19" xmlns="http://www.w3.org/2000/svg">
  <path d="M -227.5 412  C -222.18 412  -218 416.18  -218 421.5  C -218 426.82  -222.18 431  -227.5 431  C -232.82 431  -237 426.82  -237 421.5  C -237 416.18  -232.82 412  -227.5 412  Z " fill-rule="nonzero" fill="#aaa5a5" stroke="none" />
  <path d="M -227.5 412.5  C -222.46 412.5  -218.5 416.46  -218.5 421.5  C -218.5 426.54  -222.46 430.5  -227.5 430.5  C -232.54 430.5  -236.5 426.54  -236.5 421.5  C -236.5 416.46  -232.54 412.5  -227.5 412.5  Z " stroke-width="1" stroke="#797979" fill="none" />
</svg>
